X:1
T:I Am Redeemed
T:Ira David Sankey
T:I Am Redeemed
T:Public Domain
T:Public Domain
T:Public Domain
C:Ira David Sankey
Z:Public Domain
%%score ( 1 2 ) ( 3 4 )
L:1/8
M:3/4
K:Bb
V:1 treble 
V:2 treble 
V:3 bass 
V:4 bass 
V:1
 [DF][B,D] [DF] | [DB]3 [Fc] [EB]>[EA] | [EA]4 [EG]2 | [EA]3 [EG] [EF]>[EG] | %4
w: 1.~I am re-|deemed, O praise the|Lord; My|soul from bond- age|
w: 2.~I looked, and|lo! from Cal- vary’s|cross A|heal- ing fount- ain|
w: 3.~The debt is|paid, my soul is|free, And|by His might- y|
w: 4.~All glo- ry|be to Je- sus’|name; I|know that He is|
w: 5.~And when I|reach that world more|bright Than|mor- tal ev- er|
 [DF]3 [DF] [B,D][DF] | [DB]3 [Fc] [EB]>[EA] | [EA]4 [Ge]2 | (F E2) [Ec] [EG][EA] | [DB]3 || %9
w: free, Has found at|last a rest- ing|place In|Him * who died for||
w: streamed; It cleansed my|heart, and now I|sing, Praise|God, * I am re-|I|
w: power, The blood that|washed my sins a-|way Still|cleans- * eth ev- ery||
w: mine, For on my|heart the Spir- it|seals His|pledge * of love di-||
w: dreamed, I’ll cast my|crown at Je- sus’|feet And|cry, * “Re- deemed, re-||
"^Refrain" FF F | [Ec]4- [Ec][Ge][Fd][Ec] | [DB]6 [DB]2 | [DB]3 [DB] [DA]2 [DB]2 | [Fc]4- [Fc]FFB | %14
w: |||||
w: am re- deemed,|deemed, * I’ll sing it|o’er and|o’er; I am re-|deemed, * O praise the|
w: |||||
w: |||||
w: |||||
 (z F DD [Fd])[FB][Fc][Fd] | [Ee]6 [^CG]2 | [DF]3 [FB] [FB]2 [FA]2 | [DB]4- [DB] |] %18
w: ||||
w: * * * * Lord; Re- deemed|* ev-|* er- more. *||
w: ||||
w: ||||
w: ||||
V:2
 x3 | x6 | x6 | x6 | x6 | x6 | x6 | d3 x3 | x3 || FF F | x8 | x8 | x8 | x8 | d4- x4 | x8 | x8 | %17
w: |||||||me.||||||||||
w: |||||||deemed.||I am re-|||||for-|||
w: |||||||hour.||||||||||
w: |||||||vine.||||||||||
w: |||||||deemed.”||||||||||
 x5 |] %18
w: |
w: |
w: |
w: |
w: |
V:3
 [B,,B,][B,,B,] [B,,B,] | [B,,F,]3 [D,B,] [F,C]>[F,C] | [F,C]4 [F,B,]2 | %3
w: ~ ~ ~|~ ~ ~ ~|~ ~|
 [F,C]3 [F,B,] [F,A,]>[F,A,] | [B,,B,]3 [B,,B,] [B,,B,][B,,B,] | [B,,F,]3 [D,B,] [F,C]>[F,C] | %6
w: ~ ~ ~ ~|~ ~ ~ ~|~ ~ ~ ~|
 [F,C]4 [F,A,]2 | [F,A,]3 [F,A,] [F,C]F, | [B,,F,]3 || z3 | z [F,A,] [F,A,][F,A,] [F,A,] z3 | %11
w: ~ ~|~ ~ ~ ~|I||am re- demeed, I|
 z [B,,F,] [B,,F,][B,,F,] [B,,F,]2 [B,,B,]2 | G,3 G, [D,^F,]2 G,2 | [F,A,]4- [F,A,] z3 | %14
w: am re- demeed, ~ ~|~ ~ ~ ~|demeed, *|
 z [B,,B,] [B,,F,][B,,F,] [B,,B,][B,D][A,C][_A,B,] | [G,B,]6 [=E,B,]2 | %16
w: ||
 [F,B,]3 [F,D] [F,C]2 [F,C]2 | [B,,B,]4- [B,,B,] |] %18
w: ||
V:4
 x3 | x6 | x6 | x6 | x6 | x6 | x6 | x5 F, | x3 || x3 | x8 | x8 | G,3 G, x G,2 x | x8 | x8 | x8 | %16
w: |||||||~|||||I am re-||||
 x8 | x5 |] %18
w: ||

